X:59
T:Gigue ur Magnus Theorins notbok
T:(SM X:59)
R:Gigue
S:Magnus Theorin
O:Växjö, Småland
B:Småländsk Musiktradition
N:1792. Smålands museums handskriftsarkiv
N:Småländsk Musiktradition X:59
Z:Till abc Jonas Brunskog
Q:1/4=140
M:6/8
L:1/8
K:G
GBd gdB|cAc BAG|Ecc DBB| ABG FED|
GBd gdB|cAc BAG|Ecc DBB|ABF G3:|
|:dgb afd|^ceg g2f|e^de gbd|^cdB A3:|
|:geg geg|fga aaa|geg geg|fga aaa|
Bcd efg|bag fed|Bgf ed^c|d3 d3:|

